groups/cycloalkanes/cycloheptane.svg

<svg xmlns="http://www.w3.org/2000/svg" xmlns:rdkit="http://www.rdkit.org/xml" xmlns:xlink="http://www.w3.org/1999/xlink" width="256" height="256" baseProfile="full" version="1.1" viewBox="0 0 256 256" xml:space="preserve"><rect style="opacity:1;fill:#fff;stroke:none" width="256" height="256" x="0" y="0"/><path d="M 208.899,11.6364 L 189.786,45.1122" class="bond-0" style="fill:none;fill-rule:evenodd;stroke:#7f7f7f;stroke-width:3px;stroke-linecap:butt;stroke-linejoin:miter;stroke-opacity:1"/><path d="M 189.786,45.1122 L 170.674,78.5881" class="bond-0" style="fill:none;fill-rule:evenodd;stroke:#000;stroke-width:3px;stroke-linecap:butt;stroke-linejoin:miter;stroke-opacity:1"/><path d="M 170.674,78.5881 L 93.7609,73.1912" class="bond-1" style="fill:none;fill-rule:evenodd;stroke:#000;stroke-width:3px;stroke-linecap:butt;stroke-linejoin:miter;stroke-opacity:1"/><path d="M 170.674,78.5881 L 214.403,142.07" class="bond-7" style="fill:none;fill-rule:evenodd;stroke:#000;stroke-width:3px;stroke-linecap:butt;stroke-linejoin:miter;stroke-opacity:1"/><path d="M 93.7609,73.1912 L 41.5965,129.951" class="bond-2" style="fill:none;fill-rule:evenodd;stroke:#000;stroke-width:3px;stroke-linecap:butt;stroke-linejoin:miter;stroke-opacity:1"/><path d="M 41.5965,129.951 L 53.4388,206.139" class="bond-3" style="fill:none;fill-rule:evenodd;stroke:#000;stroke-width:3px;stroke-linecap:butt;stroke-linejoin:miter;stroke-opacity:1"/><path d="M 53.4388,206.139 L 120.406,244.364" class="bond-4" style="fill:none;fill-rule:evenodd;stroke:#000;stroke-width:3px;stroke-linecap:butt;stroke-linejoin:miter;stroke-opacity:1"/><path d="M 120.406,244.364 L 192.03,215.853" class="bond-5" style="fill:none;fill-rule:evenodd;stroke:#000;stroke-width:3px;stroke-linecap:butt;stroke-linejoin:miter;stroke-opacity:1"/><path d="M 192.03,215.853 L 214.403,142.07" class="bond-6" style="fill:none;fill-rule:evenodd;stroke:#000;stroke-width:3px;stroke-linecap:butt;stroke-linejoin:miter;stroke-opacity:1"/><path d="M175.422,-7.47678 C174.905,-3.33271 176.3,-2.53633 179.606,-5.08764 C182.913,-7.63895 184.307,-6.84257 183.791,-2.69849 C183.275,1.44558 184.669,2.24196 187.976,-0.309351 C191.282,-2.86066 192.677,-2.06428 192.16,2.07979 C191.644,6.22386 193.039,7.02025 196.345,4.46893 C199.651,1.91762 201.046,2.71401 200.529,6.85808 C200.013,11.0021 201.408,11.7985 204.714,9.24722 C208.02,6.69591 209.415,7.49229 208.899,11.6364 C208.382,15.7804 209.777,16.5768 213.083,14.0255 C216.389,11.4742 217.784,12.2706 217.268,16.4146 C216.751,20.5587 218.146,21.3551 221.453,18.8038 C224.759,16.2525 226.154,17.0489 225.637,21.1929 C225.121,25.337 226.516,26.1334 229.822,23.5821 C233.128,21.0308 234.523,21.8271 234.006,25.9712 C233.49,30.1153 234.885,30.9117 238.191,28.3604 C241.497,25.8091 242.892,26.6054 242.376,30.7495" style="fill:none;stroke:#7f7f7f;stroke-width:3px;stroke-linecap:butt;stroke-linejoin:miter;stroke-opacity:1"/></svg>

<svg height="256" viewBox="0 0 256 256" width="256" xmlns="http://www.w3.org/2000/svg"><path d="m0 0h256v256h-256z" fill="#fff"/><g fill="none" stroke-width="3"><path d="m208.899 11.636-19.113 33.476" stroke="#7f7f7f"/><path d="m189.786 45.112-19.112 33.476" stroke="#000"/><path d="m170.674 78.588-76.913-5.397" stroke="#000"/><path d="m170.674 78.588 43.729 63.482" stroke="#000"/><path d="m93.761 73.191-52.164 56.76" stroke="#000"/><path d="m41.597 129.951 11.842 76.188" stroke="#000"/><path d="m53.439 206.139 66.967 38.225" stroke="#000"/><path d="m120.406 244.364 71.624-28.511" stroke="#000"/><path d="m192.03 215.853 22.373-73.783" stroke="#000"/><path d="m175.422-7.477c-.517 4.144.878 4.941 4.184 2.389 3.307-2.551 4.701-1.755 4.185 2.39-.516 4.144.878 4.94 4.185 2.389 3.306-2.552 4.701-1.755 4.184 2.389-.516 4.144.879 4.94 4.185 2.389 3.306-2.551 4.701-1.755 4.184 2.389-.516 4.144.879 4.941 4.185 2.389 3.306-2.551 4.701-1.755 4.185 2.389-.517 4.144.878 4.941 4.184 2.39 3.306-2.552 4.701-1.755 4.185 2.389-.517 4.144.878 4.94 4.185 2.389 3.306-2.551 4.701-1.755 4.184 2.389-.516 4.144.879 4.94 4.185 2.389s4.701-1.755 4.184 2.389c-.516 4.144.879 4.941 4.185 2.389 3.306-2.551 4.701-1.755 4.185 2.39" stroke="#7f7f7f"/></g></svg>
